X: 35
T: The Fiddler in the Foreign Room
C: Armand Aromin
H: 3/30/05
M: 6/8
L: 1/8
R: Jig
K: Bmin
B3 cBA | B3 cBA | cef ece | cef ece |
B3 cBA | B3 cBA | cef ecA |1 B3 B2 A :|2 B3 B2 F ||
B3 Bcd | c3 dcB | A3 AFD | FAB cBA |
B3 Bcd | c3 cde | fed cBA |1 B3 B2 F :|2 B3 B2 A |]
